; generated by PrusaSlicer 2.5.0+linux-x64-GTK3 on 2023-01-24 at 08:17:27 UTC

; 

; external perimeters extrusion width = 0.42mm
; perimeters extrusion width = 0.44mm
; infill extrusion width = 0.44mm
; solid infill extrusion width = 0.44mm
; top infill extrusion width = 0.40mm
; first layer extrusion width = 0.42mm

M107
;TYPE:Custom
G90 ; use absolute coordinates
M83 ; extruder relative mode
M140 S60 ; set final bed temp
M104 S150 ; set temporary nozzle temp to prevent oozing during homing and auto bed leveling
G4 S10 ; allow partial nozzle warmup
G28 ; home all axis
G29 ; auto bed levelling
G1 Z50 F240
G1 X2 Y10 F3000
M104 S205 ; set final nozzle temp
M190 S60 ; wait for bed temp to stabilize
M109 S205 ; wait for nozzle temp to stabilize
G1 Z0.28 F240
G92 E0
G1 Y140 E10 F1500 ; prime the nozzle
G1 X2.3 F5000
G92 E0
G1 Y10 E10 F1200 ; prime the nozzle
G92 E0
G21 ; set units to millimeters
G90 ; use absolute coordinates
M83 ; use relative distances for extrusion
; Filament gcode
M107
;LAYER_CHANGE
;Z:0.2
;HEIGHT:0.2
;BEFORE_LAYER_CHANGE
G92 E0
;0.2


G1 E-5 F3600
G1 Z.2 F9000
;AFTER_LAYER_CHANGE
;0.2
G1 X88.902 Y83.72
G1 E5 F2400
M204 S500
;TYPE:Skirt/Brim
;WIDTH:0.42
G1 F1200
G1 X89.857 Y82.763 E.0424
G1 X91.685 Y81.303 E.07334
G1 X92.822 Y80.588 E.04213
G1 X94.916 Y79.58 E.07286
G1 X96.184 Y79.136 E.04213
G1 X98.449 Y78.619 E.07286
G1 X100.946 Y78.403 E.07858
G1 X130.946 Y78.403 E.94063
G1 X132.108 Y78.469 E.03649
G1 X133.443 Y78.619 E.04213
G1 X135.709 Y79.136 E.07286
G1 X136.977 Y79.58 E.04213
G1 X139.071 Y80.588 E.07286
G1 X140.201 Y81.298 E.04185
G1 X142.007 Y82.736 E.07238
G1 X142.964 Y83.691 E.0424
G1 X144.424 Y85.519 E.07334
G1 X145.127 Y86.638 E.04145
G1 X146.123 Y88.697 E.07172
G1 X146.576 Y89.975 E.0425
G1 X147.103 Y92.26 E.07352
G1 X147.323 Y94.781 E.07933
G1 X147.323 Y140.781 E1.4423
G1 X147.108 Y143.278 E.07858
G1 X146.591 Y145.543 E.07286
G1 X146.147 Y146.811 E.04213
G1 X145.139 Y148.905 E.07286
G1 X144.429 Y150.035 E.04185
G1 X142.991 Y151.841 E.07238
G1 X142.036 Y152.798 E.0424
G1 X140.208 Y154.258 E.07334
G1 X139.071 Y154.973 E.04213
G1 X136.977 Y155.981 E.07286
G1 X135.709 Y156.425 E.04213
G1 X133.443 Y156.942 E.07286
G1 X130.946 Y157.158 E.07858
G1 X100.946 Y157.158 E.94063
G1 X98.449 Y156.942 E.07858
G1 X96.184 Y156.425 E.07286
G1 X94.916 Y155.981 E.04213
G1 X92.822 Y154.973 E.07286
G1 X91.692 Y154.263 E.04185
G1 X89.886 Y152.825 E.07238
G1 X88.929 Y151.87 E.0424
G1 X87.469 Y150.042 E.07334
G1 X86.766 Y148.923 E.04145
G1 X85.769 Y146.864 E.07172
G1 X85.317 Y145.586 E.0425
G1 X84.79 Y143.301 E.07352
G1 X84.636 Y141.958 E.0424
G1 X84.569 Y140.781 E.03697
G1 X84.569 Y94.781 E1.4423
G1 X84.785 Y92.284 E.07858
G1 X85.302 Y90.018 E.07286
G1 X85.746 Y88.75 E.04213
G1 X86.754 Y86.656 E.07286
G1 X87.464 Y85.526 E.04185
G1 X88.865 Y83.767 E.0705
G1 E-3.5 F3600
;WIPE_START
G1 F7200
G1 X89.857 Y82.763 E-.67068
G1 X91.098 Y81.772 E-.75432
;WIPE_END
G1 E-.075 F3600
G1 X97.125 Y91.675 F9000
G1 E5 F2400
;TYPE:Perimeter
;WIDTH:0.419999
G1 F1200
G1 X97.924 Y90.895 E.03503
G1 X98.866 Y90.319 E.03463
G1 X99.901 Y89.969 E.03424
;WIDTH:0.45785
G1 X100.064 Y89.97 E.00564
;WIDTH:0.4957
G1 X100.228 Y89.97 E.00616
;WIDTH:0.533551
G1 X100.392 Y89.971 E.00667
;WIDTH:0.571406
G1 X100.555 Y89.972 E.00719
G1 X101.177 Y89.901 E.02751
;WIDTH:0.533555
G1 X101.329 Y89.883 E.00625
;WIDTH:0.495703
G1 X101.481 Y89.864 E.00577
;WIDTH:0.457851
G1 X101.633 Y89.845 E.00528
;WIDTH:0.419999
G1 X130.26 Y89.845 E.89756
;WIDTH:0.467252
G1 X130.546 Y89.877 E.01016
;WIDTH:0.514504
G1 X130.832 Y89.91 E.01129
;WIDTH:0.561756
G1 X131.118 Y89.942 E.01242
G1 X131.297 Y89.938 E.00771
;WIDTH:0.514504
G1 X131.475 Y89.935 E.00701
;WIDTH:0.467252
G1 X131.654 Y89.931 E.0063
;WIDTH:0.419999
G1 X132.092 Y89.992 E.01387
G1 X133.138 Y90.373 E.03489
G1 X134.062 Y90.969 E.0345
G1 X134.826 Y91.749 E.03423
;WIDTH:0.467354
G1 X134.956 Y92 E.01
;WIDTH:0.514708
G1 X135.087 Y92.252 E.01111
;WIDTH:0.562062
G1 X135.345 Y92.756 E.02445
;WIDTH:0.530181
G1 X135.474 Y93.008 E.01147
;WIDTH:0.498299
G1 X135.613 Y93.346 E.01383
;WIDTH:0.459149
G1 X135.752 Y93.684 E.01264
;WIDTH:0.419999
G1 X135.882 Y94.84 E.03649
G1 X135.882 Y140.721 E1.43855
G1 X135.733 Y141.931 E.03822
;WIDTH:0.445713
G1 X135.499 Y142.562 E.02255
;WIDTH:0.491252
G1 X135.432 Y142.678 E.00499
;WIDTH:0.53679
G1 X135.365 Y142.794 E.0055
;WIDTH:0.582328
G1 X134.983 Y143.43 E.0333
;WIDTH:0.562063
G1 X134.911 Y143.582 E.00724
;WIDTH:0.514709
G1 X134.84 Y143.734 E.00658
;WIDTH:0.467354
G1 X134.768 Y143.886 E.00592
;WIDTH:0.419999
G1 X133.969 Y144.666 E.03503
G1 X133.027 Y145.242 E.03463
G1 X131.992 Y145.592 E.03424
;WIDTH:0.45785
G1 X131.828 Y145.591 E.00564
;WIDTH:0.4957
G1 X131.665 Y145.591 E.00616
;WIDTH:0.533551
G1 X131.501 Y145.59 E.00667
;WIDTH:0.571406
G1 X131.338 Y145.589 E.00719
G1 X130.716 Y145.66 E.02751
;WIDTH:0.533555
G1 X130.564 Y145.679 E.00625
;WIDTH:0.495703
G1 X130.412 Y145.697 E.00577
;WIDTH:0.457851
G1 X130.26 Y145.716 E.00528
;WIDTH:0.419999
G1 X101.633 Y145.716 E.89756
;WIDTH:0.467252
G1 X101.347 Y145.684 E.01016
;WIDTH:0.514504
G1 X101.061 Y145.651 E.01129
;WIDTH:0.561756
G1 X100.775 Y145.619 E.01242
G1 X100.596 Y145.623 E.00771
;WIDTH:0.514504
G1 X100.418 Y145.626 E.00701
;WIDTH:0.467252
G1 X100.239 Y145.63 E.0063
;WIDTH:0.419999
G1 X99.85 Y145.586 E.01229
G1 X98.808 Y145.222 E.03461
G1 X97.873 Y144.634 E.03461
G1 X97.125 Y143.886 E.0332
;WIDTH:0.467355
G1 X97.053 Y143.734 E.00592
;WIDTH:0.514711
G1 X96.982 Y143.582 E.00658
;WIDTH:0.562066
G1 X96.91 Y143.43 E.00724
G1 X96.789 Y143.246 E.0095
;WIDTH:0.552491
G1 X96.657 Y143.018 E.01117
;WIDTH:0.516899
G1 X96.526 Y142.79 E.01039
;WIDTH:0.481306
G1 X96.394 Y142.562 E.00961
;WIDTH:0.445713
G1 X96.141 Y141.877 E.02444
;WIDTH:0.419999
G1 X96.011 Y140.721 E.03649
G1 X96.011 Y94.84 E1.43855
G1 X96.16 Y93.63 E.03822
;WIDTH:0.460582
G1 X96.262 Y93.399 E.00878
;WIDTH:0.501164
G1 X96.364 Y93.168 E.00963
;WIDTH:0.541747
G1 X96.467 Y92.937 E.01048
;WIDTH:0.582329
G1 X96.569 Y92.706 E.01134
G1 X96.789 Y92.315 E.02013
;WIDTH:0.552491
G1 X96.901 Y92.102 E.0102
;WIDTH:0.508327
G1 X97.013 Y91.889 E.00931
;WIDTH:0.464163
G1 X97.097 Y91.729 E.00633
G1 X96.796 Y91.471 F9000
;WIDTH:0.419999
G1 F1200
G1 X97.637 Y90.63 E.03727
G1 X98.643 Y89.998 E.03727
G1 X99.765 Y89.605 E.03727
G1 X100.985 Y89.468 E.03849
G1 X130.908 Y89.468 E.93821
G1 X132.128 Y89.605 E.03849
G1 X133.25 Y89.998 E.03727
G1 X134.256 Y90.63 E.03727
G1 X135.097 Y91.471 E.03727
G1 X135.729 Y92.477 E.03727
G1 X136.122 Y93.599 E.03727
G1 X136.259 Y94.819 E.03849
G1 X136.259 Y140.742 E1.43988
G1 X136.122 Y141.962 E.03849
G1 X135.729 Y143.084 E.03727
G1 X135.097 Y144.09 E.03727
G1 X134.256 Y144.931 E.03727
G1 X133.25 Y145.563 E.03727
G1 X132.128 Y145.956 E.03727
G1 X130.908 Y146.093 E.03849
G1 X100.985 Y146.093 E.93821
G1 X99.765 Y145.956 E.03849
G1 X98.643 Y145.563 E.03727
G1 X97.637 Y144.931 E.03727
G1 X96.796 Y144.09 E.03727
G1 X96.164 Y143.084 E.03727
G1 X95.771 Y141.962 E.03727
G1 X95.633 Y140.742 E.03849
G1 X95.633 Y94.819 E1.43988
G1 X95.771 Y93.599 E.03849
G1 X96.164 Y92.477 E.03727
G1 X96.764 Y91.521 E.03539
G1 X96.499 Y91.234 F9000
;TYPE:External perimeter
G1 F1200
G1 X97.4 Y90.333 E.03994
G1 X98.478 Y89.656 E.03994
G1 X99.681 Y89.235 E.03994
G1 X100.964 Y89.091 E.04049
G1 X130.929 Y89.091 E.93954
G1 X132.212 Y89.235 E.04049
G1 X133.414 Y89.656 E.03994
G1 X134.493 Y90.333 E.03994
G1 X135.394 Y91.234 E.03994
G1 X136.071 Y92.313 E.03994
G1 X136.492 Y93.515 E.03994
G1 X136.636 Y94.798 E.04049
G1 X136.636 Y140.763 E1.4412
G1 X136.492 Y142.046 E.04049
G1 X136.071 Y143.248 E.03994
G1 X135.394 Y144.327 E.03994
G1 X134.493 Y145.228 E.03994
G1 X133.414 Y145.905 E.03994
G1 X132.212 Y146.326 E.03994
G1 X130.929 Y146.471 E.04049
G1 X100.964 Y146.471 E.93954
G1 X99.681 Y146.326 E.04049
G1 X98.478 Y145.905 E.03994
G1 X97.4 Y145.228 E.03994
G1 X96.499 Y144.327 E.03994
G1 X95.822 Y143.248 E.03994
G1 X95.401 Y142.046 E.03994
G1 X95.256 Y140.763 E.04049
G1 X95.256 Y94.798 E1.4412
G1 X95.401 Y93.515 E.04049
G1 X95.822 Y92.313 E.03994
G1 X96.467 Y91.285 E.03805
G1 X96.895 Y91.294 F9000
G1 X97.364 Y92.482
;TYPE:Perimeter
;WIDTH:0.508327
G1 F1200
G1 X97.478 Y92.398 E.00549
;WIDTH:0.464163
G1 X97.607 Y92.304 E.00558
;WIDTH:0.419999
G1 X100.18 Y90.819 E.09316
;WIDTH:0.45785
G1 X100.3 Y90.736 E.00502
;WIDTH:0.4957
G1 X100.42 Y90.653 E.00548
;WIDTH:0.533551
G1 X100.539 Y90.57 E.00594
;WIDTH:0.571401
G1 X100.659 Y90.488 E.0064
;WIDTH:0.579902
G1 X101.123 Y90.458 E.02076
G1 X101.197 Y90.505 E.00392
;WIDTH:0.539927
G1 X101.27 Y90.553 E.00363
;WIDTH:0.499951
G1 X101.344 Y90.601 E.00334
;WIDTH:0.459975
G1 X101.418 Y90.648 E.00304
;WIDTH:0.419999
G1 X104.289 Y92.306 E.10396
G1 X104.524 Y92.499 E.00953
G1 X104.67 Y92.721 E.00833
G1 X104.761 Y93.123 E.01292
G1 X104.761 Y96.438 E.10396
G1 X104.686 Y96.805 E.01172
G1 X104.479 Y97.11 E.01158
G1 X104.006 Y97.418 E.01771
G1 X101.418 Y98.913 E.0937
G1 X101.084 Y99.029 E.01108
G1 X100.814 Y99.03 E.00848
G1 X100.475 Y98.913 E.01124
G1 X97.604 Y97.255 E.10396
G1 X97.277 Y96.941 E.0142
G1 X97.146 Y96.601 E.01141
G1 X97.132 Y96.438 E.00513
G1 X97.132 Y93.796 E.08286
;WIDTH:0.459149
G1 X97.113 Y93.459 E.01167
;WIDTH:0.498299
G1 X97.093 Y93.123 E.01276
;WIDTH:0.544159
G1 X97.077 Y93.039 E.00354
;WIDTH:0.590018
G1 X97.061 Y92.956 E.00386
G1 X97.221 Y92.586 E.01834
;WIDTH:0.552491
G1 X97.315 Y92.517 E.00495
G1 X97.645 Y92.803 F9000
;WIDTH:0.419999
G1 F1200
G1 X97.796 Y92.631 E.00718
G1 X100.664 Y90.975 E.10384
G1 X100.883 Y90.903 E.00724
G1 X101.044 Y90.908 E.00505
G1 X101.229 Y90.975 E.00617
G1 X104.101 Y92.633 E.10396
G1 X104.242 Y92.748 E.00572
G1 X104.372 Y93.01 E.00917
G1 X104.383 Y93.123 E.00355
G1 X104.383 Y96.438 E.10396
G1 X104.321 Y96.696 E.00833
G1 X104.162 Y96.887 E.00779
G1 X101.229 Y98.586 E.10627
G1 X100.954 Y98.662 E.00895
G1 X100.664 Y98.586 E.00941
G1 X97.792 Y96.928 E.10396
G1 X97.596 Y96.74 E.00852
G1 X97.509 Y96.438 E.00984
G1 X97.509 Y93.123 E.10396
G1 X97.551 Y92.909 E.00683
G1 X97.605 Y92.848 E.00255
G1 X97.915 Y93.022 F9000
;TYPE:External perimeter
G1 F1200
G1 X98.849 Y92.458 E.03421
G1 X100.852 Y91.302 E.07252
G1 X100.979 Y91.279 E.00404
G1 X103.912 Y92.959 E.10599
G1 X104.003 Y93.085 E.00486
G1 X104.006 Y93.123 E.00118
G1 X104.006 Y96.438 E.10396
G1 X103.943 Y96.58 E.00486
G1 X101.041 Y98.259 E.10514
G1 X100.887 Y98.275 E.00484
G1 X97.981 Y96.602 E.10516
G1 X97.889 Y96.471 E.005
G1 X97.886 Y96.438 E.00103
G1 X97.899 Y93.08 E.1053
G1 X97.774 Y92.648 F9000
G1 E-3.5 F3600
;WIPE_START
G1 F7200
G1 X98.849 Y92.458 E-.53958
G1 X100.464 Y91.526 E-.88542
;WIPE_END
G1 E-.075 F3600
G1 X109.932 Y103.885 F9000
G1 E5 F2400
;TYPE:Perimeter
G1 F1200
G1 X110.014 Y103.48 E.01298
G1 X110.247 Y102.977 E.01736
G1 X110.406 Y102.734 E.00911
G1 X110.747 Y102.359 E.01588
G1 X111.157 Y102.068 E.01577
G1 X111.724 Y101.824 E.01936
G1 X112.303 Y101.726 E.0184
G1 X112.932 Y101.768 E.01977
G1 X113.535 Y101.963 E.01987
G1 X114.058 Y102.29 E.01936
G1 X114.487 Y102.734 E.01936
G1 X114.798 Y103.267 E.01936
G1 X114.972 Y103.859 E.01936
G1 X115 Y104.476 E.01936
G1 X114.879 Y105.081 E.01936
G1 X114.616 Y105.64 E.01936
G1 X114.228 Y106.12 E.01936
G1 X113.736 Y106.493 E.01936
G1 X113.169 Y106.737 E.01936
G1 X112.56 Y106.839 E.01936
G1 X111.945 Y106.792 E.01936
G1 X111.358 Y106.598 E.01936
G1 X110.835 Y106.271 E.01936
G1 X110.381 Y105.788 E.02078
G1 X110.095 Y105.294 E.0179
G1 X109.921 Y104.701 E.01936
G1 X109.901 Y104.039 E.02078
G1 X109.92 Y103.944 E.00304
G1 X110.281 Y104.269 F9000
G1 F1200
G1 X110.278 Y104.046 E.00701
G1 X110.4 Y103.506 E.01735
G1 X110.645 Y103.039 E.01654
G1 X110.996 Y102.642 E.01661
G1 X111.433 Y102.342 E.01662
G1 X111.907 Y102.16 E.01592
G1 X112.411 Y102.096 E.01594
G1 X112.966 Y102.155 E.01748
G1 X113.464 Y102.344 E.01671
G1 X113.893 Y102.639 E.01634
G1 X114.246 Y103.037 E.01667
G1 X114.487 Y103.491 E.01612
G1 X114.614 Y103.985 E.016
G1 X114.62 Y104.526 E.01696
G1 X114.505 Y105.017 E.01582
G1 X114.282 Y105.465 E.01568
G1 X113.946 Y105.87 E.01651
G1 X113.522 Y106.183 E.01652
G1 X113.035 Y106.385 E.01652
G1 X112.515 Y106.464 E.01651
G1 X111.99 Y106.417 E.01652
G1 X111.492 Y106.246 E.01651
G1 X111.049 Y105.96 E.01652
G1 X110.667 Y105.543 E.01774
G1 X110.401 Y105.057 E.01737
G1 X110.287 Y104.611 E.01443
G1 X110.282 Y104.329 E.00885
G1 X110.653 Y104.521 F9000
;TYPE:External perimeter
G1 F1200
G1 X110.66 Y104.01 E.01601
G1 X110.763 Y103.618 E.01273
G1 X110.97 Y103.234 E.01368
G1 X111.263 Y102.911 E.01368
G1 X111.626 Y102.668 E.01368
G1 X112.035 Y102.518 E.01368
G1 X112.436 Y102.474 E.01262
G1 X112.901 Y102.529 E.0147
G1 X113.307 Y102.689 E.01368
G1 X113.663 Y102.941 E.01368
G1 X113.949 Y103.271 E.01368
G1 X114.146 Y103.66 E.01368
G1 X114.245 Y104.085 E.01368
G1 X114.24 Y104.521 E.01368
G1 X114.13 Y104.943 E.01368
G1 X113.923 Y105.327 E.01368
G1 X113.629 Y105.65 E.01368
G1 X113.267 Y105.893 E.01368
G1 X112.857 Y106.043 E.01368
G1 X112.424 Y106.09 E.01368
G1 X111.991 Y106.032 E.01368
G1 X111.585 Y105.872 E.01368
G1 X111.227 Y105.617 E.01378
G1 X110.93 Y105.263 E.0145
G1 X110.746 Y104.901 E.01273
G1 X110.667 Y104.579 E.01039
G1 X110.287 Y104.36 F9000
G1 E-3.5 F3600
;WIPE_START
G1 F7200
G1 X110.66 Y104.01 E-.27027
G1 X110.763 Y103.618 E-.19278
G1 X110.97 Y103.234 E-.20722
G1 X111.263 Y102.911 E-.20722
G1 X111.626 Y102.668 E-.20723
G1 X112.035 Y102.518 E-.20722
G1 X112.314 Y102.488 E-.13306
;WIPE_END
G1 E-.075 F3600
G1 X130.782 Y99.012 F9000
G1 E5 F2400
;TYPE:Perimeter
G1 F1200
G1 X130.708 Y99.008 E.00231
G1 X130.475 Y98.913 E.00791
G1 X127.599 Y97.252 E.10414
G1 X127.36 Y97.052 E.00976
G1 X127.214 Y96.821 E.00857
G1 X127.138 Y96.538 E.0092
G1 X127.132 Y96.438 E.00313
G1 X127.132 Y93.123 E.10396
G1 X127.222 Y92.721 E.01292
G1 X127.368 Y92.499 E.00833
G1 X127.604 Y92.306 E.00953
G1 X130.475 Y90.648 E.10396
;WIDTH:0.459975
G1 X130.549 Y90.601 E.00304
;WIDTH:0.499951
G1 X130.622 Y90.553 E.00334
;WIDTH:0.539927
G1 X130.696 Y90.505 E.00363
;WIDTH:0.579903
G1 X130.77 Y90.458 E.00392
G1 X131.06 Y90.458 E.01296
;WIDTH:0.561756
G1 X131.277 Y90.578 E.01073
;WIDTH:0.514504
G1 X131.495 Y90.698 E.00975
;WIDTH:0.467252
G1 X131.713 Y90.819 E.00877
;WIDTH:0.419999
G1 X134.289 Y92.306 E.09329
;WIDTH:0.464162
G1 X134.417 Y92.399 E.00554
;WIDTH:0.508325
G1 X134.545 Y92.493 E.00612
;WIDTH:0.552488
G1 X134.672 Y92.586 E.0067
;WIDTH:0.590016
G1 X134.832 Y92.956 E.01834
G1 X134.814 Y93.166 E.00959
;WIDTH:0.547512
G1 X134.796 Y93.376 E.00884
;WIDTH:0.505008
G1 X134.778 Y93.586 E.0081
;WIDTH:0.462504
G1 X134.761 Y93.796 E.00735
;WIDTH:0.419999
G1 X134.761 Y96.438 E.08286
G1 X134.746 Y96.601 E.00513
G1 X134.616 Y96.941 E.01141
G1 X134.289 Y97.255 E.0142
G1 X131.418 Y98.913 E.10396
G1 X131.083 Y99.029 E.01111
G1 X130.842 Y99.016 E.00757
G1 X130.795 Y98.622 F9000
G1 F1200
G1 X130.664 Y98.586 E.00426
G1 X127.789 Y96.927 E.10407
G1 X127.597 Y96.74 E.0084
G1 X127.513 Y96.498 E.00803
G1 X127.509 Y96.438 E.00188
G1 X127.509 Y93.123 E.10396
G1 X127.563 Y92.881 E.00775
G1 X127.651 Y92.748 E.005
G1 X127.792 Y92.633 E.00572
G1 X130.664 Y90.975 E.10396
G1 X130.912 Y90.9 E.00812
G1 X131.229 Y90.975 E.01023
G1 X134.101 Y92.633 E.10396
G1 X134.342 Y92.909 E.01149
G1 X134.383 Y93.123 E.00683
G1 X134.383 Y96.438 E.10396
G1 X134.296 Y96.74 E.00984
G1 X134.101 Y96.928 E.00852
G1 X131.229 Y98.586 E.10396
G1 X130.942 Y98.662 E.00931
G1 X130.852 Y98.637 E.00291
G1 X130.881 Y98.273 F9000
;TYPE:External perimeter
G1 F1200
G1 X127.98 Y96.601 E.10499
G1 X127.889 Y96.472 E.00495
G1 X127.886 Y93.123 E.105
G1 X127.934 Y92.998 E.00418
G1 X127.981 Y92.959 E.00191
G1 X130.852 Y91.302 E.10396
G1 X130.968 Y91.277 E.0037
G1 X133.912 Y92.959 E.10633
G1 X134.004 Y93.092 E.00506
G1 X134.006 Y96.438 E.10492
G1 X133.977 Y96.539 E.00328
G1 X133.912 Y96.602 E.00284
G1 X131.041 Y98.259 E.10396
G1 X130.941 Y98.268 E.00315
G1 X130.622 Y98.578 F9000
G1 E-3.5 F3600
;WIPE_START
G1 F7200
G1 X128.326 Y96.796 E-1.425
;WIPE_END
G1 E-.075 F3600
G1 X131.291 Y136.605 F9000
G1 E5 F2400
;TYPE:Perimeter
G1 F1200
G1 X131.418 Y136.648 E.0042
G1 X134.289 Y138.306 E.10396
G1 X134.616 Y138.62 E.0142
G1 X134.761 Y139.123 E.0164
