; generated by PrusaSlicer 2.5.0+linux-x64-GTK3 on 2023-01-24 at 08:17:58 UTC

; 

; external perimeters extrusion width = 0.42mm
; perimeters extrusion width = 0.44mm
; infill extrusion width = 0.44mm
; solid infill extrusion width = 0.44mm
; top infill extrusion width = 0.40mm
; first layer extrusion width = 0.42mm

M107
;TYPE:Custom
G90 ; use absolute coordinates
M83 ; extruder relative mode
M140 S60 ; set final bed temp
M104 S150 ; set temporary nozzle temp to prevent oozing during homing and auto bed leveling
G4 S10 ; allow partial nozzle warmup
G28 ; home all axis
G29 ; auto bed levelling
G1 Z50 F240
G1 X2 Y10 F3000
M104 S205 ; set final nozzle temp
M190 S60 ; wait for bed temp to stabilize
M109 S205 ; wait for nozzle temp to stabilize
G1 Z0.28 F240
G92 E0
G1 Y140 E10 F1500 ; prime the nozzle
G1 X2.3 F5000
G92 E0
G1 Y10 E10 F1200 ; prime the nozzle
G92 E0
G21 ; set units to millimeters
G90 ; use absolute coordinates
M83 ; use relative distances for extrusion
; Filament gcode
M107
;LAYER_CHANGE
;Z:0.2
;HEIGHT:0.2
;BEFORE_LAYER_CHANGE
G92 E0
;0.2


G1 E-5 F3600
G1 Z.2 F9000
;AFTER_LAYER_CHANGE
;0.2
G1 X76.545 Y83.753
G1 E5 F2400
M204 S500
;TYPE:Skirt/Brim
;WIDTH:0.42
G1 F1200
G1 X78.362 Y82.304 E.07286
G1 X79.31 Y81.709 E.03511
G1 X81.403 Y80.7 E.07286
G1 X82.46 Y80.331 E.03511
G1 X84.726 Y79.814 E.07286
G1 X85.838 Y79.688 E.03511
G1 X87 Y79.623 E.03649
G1 X133 Y79.623 E1.4423
G1 X134.162 Y79.688 E.03649
G1 X135.274 Y79.814 E.03511
G1 X137.54 Y80.331 E.07286
G1 X138.597 Y80.7 E.03511
G1 X140.69 Y81.709 E.07286
G1 X141.525 Y82.233 E.03089
G1 X143.455 Y83.753 E.07705
G1 X144.247 Y84.545 E.03511
G1 X145.696 Y86.362 E.07286
G1 X146.291 Y87.31 E.03511
G1 X147.3 Y89.403 E.07286
G1 X147.669 Y90.46 E.03511
G1 X148.186 Y92.726 E.07286
G1 X148.377 Y95 E.07156
G1 X148.377 Y125 E.94063
G1 X148.312 Y126.162 E.03649
G1 X148.186 Y127.274 E.03511
G1 X147.669 Y129.54 E.07286
G1 X147.3 Y130.597 E.03511
G1 X146.291 Y132.69 E.07286
G1 X145.696 Y133.638 E.03511
G1 X144.247 Y135.455 E.07286
G1 X143.455 Y136.247 E.03511
G1 X141.638 Y137.696 E.07286
G1 X140.738 Y138.262 E.03335
G1 X138.597 Y139.3 E.0746
G1 X137.54 Y139.669 E.03511
G1 X135.274 Y140.186 E.07286
G1 X134.162 Y140.312 E.03511
G1 X133 Y140.377 E.03649
G1 X87 Y140.377 E1.4423
G1 X84.726 Y140.186 E.07156
G1 X82.46 Y139.669 E.07286
G1 X81.403 Y139.3 E.03511
G1 X79.31 Y138.291 E.07286
G1 X78.362 Y137.696 E.03511
G1 X76.545 Y136.247 E.07286
G1 X75.753 Y135.455 E.03511
G1 X74.304 Y133.638 E.07286
G1 X73.738 Y132.738 E.03335
G1 X72.7 Y130.597 E.0746
G1 X72.331 Y129.54 E.03511
G1 X71.814 Y127.274 E.07286
G1 X71.688 Y126.162 E.03511
G1 X71.623 Y125 E.03649
G1 X71.623 Y95 E.94063
G1 X71.814 Y92.726 E.07156
G1 X72.331 Y90.46 E.07286
G1 X72.7 Y89.403 E.03511
G1 X73.709 Y87.31 E.07286
G1 X74.304 Y86.362 E.03511
G1 X75.753 Y84.545 E.07286
G1 X76.502 Y83.796 E.03322
G1 E-3.5 F3600
;WIPE_START
G1 F7200
G1 X78.362 Y82.304 E-1.13209
G1 X78.884 Y81.976 E-.29291
;WIPE_END
G1 E-.075 F3600
G1 X85.252 Y99.958 F9000
G1 E5 F2400
;TYPE:Perimeter
;WIDTH:0.419999
G1 F1200
G1 X85.121 Y99.936 E.00415
G1 X83.064 Y99.936 E.06451
G1 X83.064 Y95.06 E.15289
G1 X83.169 Y94.126 E.02947
G1 X83.46 Y93.295 E.02759
G1 X83.928 Y92.55 E.02759
G1 X84.55 Y91.928 E.02759
G1 X85.295 Y91.46 E.02759
G1 X86.126 Y91.169 E.02759
G1 X87.06 Y91.064 E.02947
G1 X89.936 Y91.064 E.09018
G1 X89.948 Y94.454 E.1063
;WIDTH:0.395917
G1 X89.962 Y95 E.01602
;WIDTH:0.400239
G1 X89.946 Y95.604 E.01796
;WIDTH:0.419999
G1 X89.936 Y97.723 E.06642
G1 X89.959 Y98.328 E.019
G1 X90.035 Y98.542 E.00713
G1 X90.288 Y98.856 E.01262
G1 X90.602 Y99.023 E.01117
G1 X90.879 Y99.064 E.00876
G1 X128.121 Y99.064 E1.16772
G1 X128.46 Y99.001 E.01079
G1 X128.778 Y98.798 E.01182
G1 X128.987 Y98.495 E.01158
G1 X129.064 Y98.121 E.01194
G1 X129.064 Y91.064 E.22128
G1 X132.94 Y91.064 E.12153
G1 X133.874 Y91.169 E.02947
G1 X134.705 Y91.46 E.02759
G1 X135.45 Y91.928 E.02759
G1 X136.072 Y92.55 E.02759
G1 X136.54 Y93.295 E.02759
G1 X136.831 Y94.126 E.02759
G1 X136.936 Y95.06 E.02947
G1 X136.936 Y124.94 E.93688
G1 X136.831 Y125.874 E.02947
G1 X136.54 Y126.705 E.02759
G1 X136.072 Y127.45 E.02759
G1 X135.45 Y128.072 E.02759
G1 X134.705 Y128.54 E.02759
G1 X133.874 Y128.831 E.02759
G1 X132.94 Y128.936 E.02947
G1 X129.064 Y128.936 E.12153
G1 X129.064 Y121.879 E.22128
G1 X128.987 Y121.505 E.01194
G1 X128.778 Y121.202 E.01158
G1 X128.46 Y120.999 E.01182
G1 X128.121 Y120.936 E.01079
G1 X119.879 Y120.936 E.25845
G1 X119.461 Y121.033 E.01344
G1 X119.173 Y121.253 E.01134
G1 X118.989 Y121.566 E.0114
G1 X118.936 Y121.871 E.00972
G1 X118.936 Y128.936 E.2215
G1 X87.06 Y128.936 E.99945
G1 X86.126 Y128.831 E.02947
G1 X85.295 Y128.54 E.02759
G1 X84.55 Y128.072 E.02759
G1 X83.928 Y127.45 E.02759
G1 X83.46 Y126.705 E.02759
G1 X83.169 Y125.874 E.02759
G1 X83.064 Y124.94 E.02947
G1 X83.064 Y120.064 E.15289
G1 X85.121 Y120.064 E.06451
G1 X85.432 Y120.012 E.00988
G1 X85.773 Y119.803 E.01251
G1 X85.989 Y119.49 E.01195
G1 X86.064 Y119.121 E.01178
G1 X86.051 Y100.723 E.57686
G1 X85.943 Y100.417 E.0102
G1 X85.689 Y100.126 E.01212
G1 X85.432 Y99.988 E.00912
G1 X85.311 Y99.968 E.00385
G1 X85.206 Y100.335 F9000
G1 F1200
G1 X85.121 Y100.313 E.00274
G1 X82.687 Y100.313 E.07633
G1 X82.687 Y95.039 E.16537
G1 X82.799 Y94.041 E.03147
G1 X83.118 Y93.131 E.03025
G1 X83.631 Y92.314 E.03025
G1 X84.314 Y91.631 E.03025
G1 X85.131 Y91.118 E.03025
G1 X86.041 Y90.799 E.03025
G1 X87.039 Y90.687 E.03147
G1 X90.313 Y90.687 E.10266
G1 X90.313 Y97.723 E.2206
G1 X90.327 Y98.246 E.0164
G1 X90.456 Y98.498 E.00889
G1 X90.619 Y98.624 E.00646
G1 X90.879 Y98.687 E.00837
G1 X128.121 Y98.687 E1.16772
G1 X128.269 Y98.667 E.00468
G1 X128.495 Y98.546 E.00804
G1 X128.641 Y98.345 E.00778
G1 X128.687 Y98.121 E.00717
G1 X128.687 Y90.687 E.2331
G1 X132.961 Y90.687 E.13402
G1 X133.959 Y90.799 E.03147
G1 X134.869 Y91.118 E.03025
G1 X135.686 Y91.631 E.03025
G1 X136.369 Y92.314 E.03025
G1 X136.882 Y93.131 E.03025
G1 X137.201 Y94.041 E.03025
G1 X137.313 Y95.039 E.03147
G1 X137.313 Y124.961 E.93821
G1 X137.201 Y125.959 E.03147
G1 X136.882 Y126.869 E.03025
G1 X136.369 Y127.686 E.03025
G1 X135.686 Y128.369 E.03025
G1 X134.869 Y128.882 E.03025
G1 X133.959 Y129.201 E.03025
G1 X132.961 Y129.313 E.03147
G1 X128.687 Y129.313 E.13402
G1 X128.681 Y121.793 E.23578
G1 X128.572 Y121.537 E.00872
G1 X128.381 Y121.376 E.00782
G1 X128.121 Y121.313 E.00839
G1 X119.879 Y121.313 E.25845
G1 X119.807 Y121.317 E.00223
G1 X119.551 Y121.418 E.00864
G1 X119.373 Y121.624 E.00854
G1 X119.313 Y121.874 E.00806
G1 X119.313 Y129.313 E.23323
G1 X87.039 Y129.313 E1.01194
G1 X86.041 Y129.201 E.03147
G1 X85.131 Y128.882 E.03025
G1 X84.314 Y128.369 E.03025
G1 X83.631 Y127.686 E.03025
G1 X83.118 Y126.869 E.03025
G1 X82.799 Y125.959 E.03025
G1 X82.687 Y124.961 E.03147
G1 X82.687 Y119.687 E.16537
G1 X85.235 Y119.676 E.07988
G1 X85.462 Y119.573 E.00781
G1 X85.614 Y119.399 E.00727
G1 X85.687 Y119.121 E.00899
G1 X85.679 Y100.785 E.57491
G1 X85.574 Y100.539 E.00839
G1 X85.403 Y100.388 E.00717
G1 X85.264 Y100.351 E.00451
G1 X85.121 Y100.69 F9000
;TYPE:External perimeter
G1 F1200
G1 X82.31 Y100.69 E.08815
G1 X82.31 Y95.017 E.17786
G1 X82.429 Y93.957 E.03346
G1 X82.776 Y92.966 E.03292
G1 X83.335 Y92.077 E.03291
G1 X84.077 Y91.335 E.03292
G1 X84.966 Y90.776 E.03292
G1 X85.957 Y90.429 E.03292
G1 X87.017 Y90.31 E.03346
G1 X90.69 Y90.31 E.11515
G1 X90.69 Y98.121 E.24492
G1 X90.738 Y98.247 E.00421
G1 X90.879 Y98.31 E.00484
G1 X128.121 Y98.31 E1.16772
G1 X128.246 Y98.263 E.00417
G1 X128.31 Y98.121 E.00487
G1 X128.31 Y90.31 E.24492
G1 X132.983 Y90.31 E.14651
G1 X134.043 Y90.429 E.03346
G1 X135.034 Y90.776 E.03292
G1 X135.923 Y91.335 E.03291
G1 X136.665 Y92.077 E.03292
G1 X137.224 Y92.966 E.03291
G1 X137.571 Y93.957 E.03292
G1 X137.69 Y95.017 E.03346
G1 X137.69 Y124.983 E.93954
G1 X137.571 Y126.043 E.03346
G1 X137.224 Y127.034 E.03292
G1 X136.665 Y127.923 E.03291
G1 X135.923 Y128.665 E.03292
G1 X135.034 Y129.224 E.03291
G1 X134.043 Y129.571 E.03292
G1 X132.983 Y129.69 E.03346
G1 X128.31 Y129.69 E.14651
G1 X128.31 Y121.879 E.24492
G1 X128.26 Y121.751 E.00429
G1 X128.121 Y121.69 E.00476
G1 X119.879 Y121.69 E.25845
G1 X119.761 Y121.731 E.00391
G1 X119.69 Y121.877 E.00508
G1 X119.69 Y129.69 E.24497
G1 X87.017 Y129.69 E1.02442
G1 X85.957 Y129.571 E.03346
G1 X84.966 Y129.224 E.03292
G1 X84.077 Y128.665 E.03291
G1 X83.335 Y127.923 E.03292
G1 X82.776 Y127.034 E.03291
G1 X82.429 Y126.043 E.03292
G1 X82.31 Y124.983 E.03346
G1 X82.31 Y119.31 E.17786
G1 X85.121 Y119.31 E.08815
G1 X85.252 Y119.258 E.0044
G1 X85.31 Y119.121 E.00465
G1 X85.31 Y100.879 E.57199
G1 X85.252 Y100.742 E.00465
G1 X85.177 Y100.712 E.00252
G1 X85.018 Y100.304 F9000
G1 E-3.5 F3600
;WIPE_START
G1 F7200
G1 X82.31 Y100.69 E-1.36194
G1 X82.31 Y100.557 E-.06306
;WIPE_END
G1 E-.075 F3600
G1 X85.439 Y97.135 F9000
G1 E5 F2400
;TYPE:Perimeter
G1 F1200
G1 X85.086 Y96.848 E.01428
G1 X84.699 Y96.336 E.02011
G1 X84.446 Y95.746 E.02011
G1 X84.342 Y95.114 E.02011
G1 X84.392 Y94.474 E.02011
G1 X84.593 Y93.865 E.02011
G1 X84.935 Y93.322 E.02011
G1 X85.369 Y92.902 E.01894
G1 X85.868 Y92.599 E.01831
G1 X86.164 Y92.474 E.01006
G1 X86.687 Y92.353 E.01684
G1 X87.208 Y92.348 E.01633
G1 X87.836 Y92.474 E.02011
G1 X88.417 Y92.748 E.02011
G1 X88.914 Y93.152 E.02011
G1 X89.301 Y93.664 E.02011
G1 X89.55 Y94.255 E.02011
;WIDTH:0.412344
G1 X89.634 Y94.889 E.01966
;WIDTH:0.395917
G1 X89.596 Y95.524 E.01867
;WIDTH:0.419999
G1 X89.407 Y96.135 E.02004
G1 X89.065 Y96.678 E.02011
G1 X88.604 Y97.123 E.02011
G1 X88.049 Y97.445 E.02011
G1 X87.433 Y97.625 E.02011
G1 X86.792 Y97.652 E.02011
G1 X86.164 Y97.526 E.02011
G1 X85.583 Y97.252 E.02011
G1 X85.486 Y97.173 E.00395
G1 X85.667 Y96.842 F9000
G1 F1200
G1 X85.336 Y96.566 E.01352
G1 X85.009 Y96.122 E.01727
G1 X84.799 Y95.613 E.01727
G1 X84.716 Y95.068 E.01727
G1 X84.766 Y94.52 E.01727
G1 X84.946 Y93.999 E.01727
G1 X85.245 Y93.537 E.01727
G1 X85.619 Y93.184 E.0161
G1 X86.126 Y92.889 E.01841
G1 X86.657 Y92.741 E.01727
G1 X87.208 Y92.725 E.01727
G1 X87.746 Y92.84 E.01727
G1 X88.241 Y93.082 E.01727
G1 X88.664 Y93.434 E.01727
G1 X88.991 Y93.878 E.01727
G1 X89.201 Y94.387 E.01727
G1 X89.284 Y94.932 E.01727
G1 X89.234 Y95.48 E.01727
G1 X89.054 Y96.001 E.01727
G1 X88.755 Y96.463 E.01727
G1 X88.353 Y96.841 E.01727
G1 X87.874 Y97.111 E.01727
G1 X87.343 Y97.259 E.01727
G1 X86.792 Y97.275 E.01727
G1 X86.254 Y97.16 E.01727
G1 X85.759 Y96.918 E.01727
G1 X85.713 Y96.88 E.00187
G1 X85.897 Y96.559 F9000
;TYPE:External perimeter
G1 F1200
G1 X85.556 Y96.249 E.01443
G1 X85.299 Y95.867 E.01443
G1 X85.141 Y95.435 E.01443
G1 X85.09 Y95.023 E.01302
G1 X85.15 Y94.526 E.0157
G1 X85.32 Y94.092 E.01459
G1 X85.586 Y93.717 E.01443
G1 X85.934 Y93.416 E.01443
G1 X86.344 Y93.207 E.01443
G1 X86.792 Y93.102 E.01443
G1 X87.253 Y93.107 E.01443
G1 X87.698 Y93.223 E.01443
G1 X88.103 Y93.441 E.01443
G1 X88.444 Y93.751 E.01443
G1 X88.701 Y94.133 E.01443
G1 X88.859 Y94.565 E.01443
G1 X88.91 Y95.023 E.01443
G1 X88.849 Y95.479 E.01443
G1 X88.68 Y95.908 E.01443
G1 X88.414 Y96.283 E.01443
G1 X88.066 Y96.584 E.01443
G1 X87.656 Y96.793 E.01443
G1 X87.208 Y96.898 E.01443
G1 X86.747 Y96.893 E.01443
G1 X86.302 Y96.777 E.01443
G1 X85.949 Y96.587 E.01255
G1 X85.533 Y96.726 F9000
G1 E-3.5 F3600
;WIPE_START
G1 F7200
G1 X85.556 Y96.249 E-.24644
G1 X85.299 Y95.867 E-.21868
G1 X85.141 Y95.435 E-.21867
G1 X85.09 Y95.023 E-.19723
G1 X85.15 Y94.526 E-.23783
G1 X85.32 Y94.092 E-.22099
G1 X85.423 Y93.946 E-.08516
;WIPE_END
G1 E-.075 F3600
G1 X86.608 Y127.615 F9000
G1 E5 F2400
;TYPE:Perimeter
G1 F1200
G1 X86.164 Y127.526 E.01422
G1 X85.583 Y127.252 E.02011
G1 X85.086 Y126.848 E.02011
G1 X84.699 Y126.336 E.02011
G1 X84.446 Y125.746 E.02011
G1 X84.342 Y125.114 E.02011
G1 X84.392 Y124.474 E.02011
G1 X84.593 Y123.865 E.02011
G1 X84.935 Y123.322 E.02011
G1 X85.396 Y122.877 E.02011
G1 X85.951 Y122.555 E.02011
G1 X86.567 Y122.375 E.02011
G1 X87.208 Y122.348 E.02011
G1 X87.836 Y122.474 E.02011
G1 X88.417 Y122.748 E.02011
G1 X88.914 Y123.152 E.02011
G1 X89.301 Y123.664 E.02011
G1 X89.554 Y124.254 E.02011
G1 X89.658 Y124.886 E.02011
G1 X89.608 Y125.526 E.02011
G1 X89.407 Y126.135 E.02011
G1 X89.065 Y126.678 E.02011
G1 X88.604 Y127.123 E.02011
G1 X88.049 Y127.445 E.02011
G1 X87.433 Y127.625 E.02011
G1 X86.792 Y127.652 E.02011
G1 X86.667 Y127.627 E.00401
G1 X86.675 Y127.25 F9000
G1 F1200
G1 X86.254 Y127.16 E.0135
G1 X85.759 Y126.918 E.01727
G1 X85.336 Y126.566 E.01727
G1 X85.009 Y126.122 E.01727
G1 X84.799 Y125.613 E.01727
G1 X84.716 Y125.068 E.01727
G1 X84.766 Y124.52 E.01727
G1 X84.946 Y123.999 E.01727
G1 X85.245 Y123.537 E.01727
G1 X85.647 Y123.159 E.01727
G1 X86.126 Y122.889 E.01727
G1 X86.657 Y122.741 E.01727
G1 X87.208 Y122.725 E.01727
G1 X87.746 Y122.84 E.01727
G1 X88.241 Y123.082 E.01727
G1 X88.664 Y123.434 E.01727
G1 X88.991 Y123.878 E.01727
G1 X89.201 Y124.387 E.01727
G1 X89.284 Y124.932 E.01727
G1 X89.234 Y125.48 E.01727
G1 X89.054 Y126.001 E.01727
G1 X88.755 Y126.463 E.01727
G1 X88.353 Y126.841 E.01727
G1 X87.874 Y127.111 E.01727
G1 X87.343 Y127.259 E.01727
G1 X86.792 Y127.275 E.01727
G1 X86.733 Y127.263 E.00189
G1 X86.747 Y126.893 F9000
;TYPE:External perimeter
G1 F1200
G1 X86.218 Y126.734 E.01732
G1 X85.869 Y126.534 E.01263
G1 X85.556 Y126.249 E.01327
G1 X85.299 Y125.867 E.01443
G1 X85.141 Y125.435 E.01443
G1 X85.09 Y125.023 E.01302
G1 X85.151 Y124.521 E.01585
G1 X85.32 Y124.092 E.01443
G1 X85.586 Y123.717 E.01443
G1 X85.934 Y123.416 E.01443
G1 X86.344 Y123.207 E.01443
G1 X86.792 Y123.102 E.01443
G1 X87.253 Y123.107 E.01443
G1 X87.698 Y123.223 E.01443
G1 X88.103 Y123.441 E.01443
G1 X88.444 Y123.751 E.01443
G1 X88.701 Y124.133 E.01443
G1 X88.859 Y124.565 E.01443
G1 X88.91 Y125.023 E.01443
G1 X88.849 Y125.479 E.01443
G1 X88.68 Y125.908 E.01443
G1 X88.414 Y126.283 E.01443
G1 X88.066 Y126.584 E.01443
G1 X87.656 Y126.793 E.01443
G1 X87.096 Y126.898 E.01787
G1 X86.807 Y126.894 E.00905
G1 X86.495 Y127.203 F9000
G1 E-3.5 F3600
;WIPE_START
G1 F7200
G1 X86.218 Y126.734 E-.2899
G1 X85.869 Y126.534 E-.19128
G1 X85.556 Y126.249 E-.20098
G1 X85.299 Y125.867 E-.21868
G1 X85.141 Y125.435 E-.21867
G1 X85.09 Y125.023 E-.19723
G1 X85.118 Y124.796 E-.10827
;WIPE_END
G1 E-.075 F3600
G1 X104.738 Y120.96 F9000
G1 E5 F2400
;TYPE:Perimeter
G1 F1200
G1 X105.169 Y120.548 E.0187
G1 X105.809 Y120.181 E.02313
G1 X106.519 Y119.978 E.02313
G1 X107.256 Y119.95 E.02313
G1 X107.978 Y120.1 E.02313
G1 X108.644 Y120.419 E.02313
G1 X109.214 Y120.887 E.02313
G1 X109.655 Y121.478 E.02313
G1 X109.942 Y122.158 E.02313
G1 X110.058 Y122.886 E.02313
G1 X109.997 Y123.622 E.02313
G1 X109.761 Y124.321 E.02313
G1 X109.364 Y124.943 E.02313
G1 X108.831 Y125.452 E.02313
G1 X108.191 Y125.819 E.02313
G1 X107.481 Y126.022 E.02313
G1 X106.744 Y126.05 E.02313
G1 X106.022 Y125.9 E.02313
G1 X105.356 Y125.581 E.02313
G1 X104.786 Y125.113 E.02313
G1 X104.345 Y124.522 E.02313
G1 X104.058 Y123.842 E.02313
G1 X103.942 Y123.114 E.02313
G1 X104.003 Y122.378 E.02313
G1 X104.171 Y121.858 E.01714
G1 X104.345 Y121.478 E.0131
G1 X104.636 Y121.057 E.01604
G1 X104.694 Y121.001 E.00255
G1 X105 Y121.221 F9000
G1 F1200
G1 X105.419 Y120.83 E.01796
G1 X105.985 Y120.515 E.02029
G1 X106.609 Y120.344 E.02029
G1 X107.256 Y120.328 E.02029
G1 X107.888 Y120.466 E.02029
G1 X108.468 Y120.753 E.02029
G1 X108.964 Y121.169 E.02029
G1 X109.345 Y121.692 E.02029
G1 X109.59 Y122.292 E.02029
G1 X109.684 Y122.932 E.02029
G1 X109.622 Y123.576 E.02029
G1 X109.408 Y124.187 E.02029
G1 X109.054 Y124.729 E.02029
G1 X108.581 Y125.17 E.02029
G1 X108.015 Y125.485 E.02029
G1 X107.391 Y125.656 E.02029
G1 X106.744 Y125.672 E.02029
G1 X106.112 Y125.534 E.02029
G1 X105.532 Y125.247 E.02029
G1 X105.036 Y124.831 E.02029
G1 X104.655 Y124.308 E.02029
G1 X104.41 Y123.708 E.02029
G1 X104.316 Y123.068 E.02029
G1 X104.378 Y122.424 E.02029
G1 X104.592 Y121.813 E.02029
G1 X104.956 Y121.262 E.02073
G1 X105.256 Y121.486 F9000
;TYPE:External perimeter
G1 F1200
G1 X105.669 Y121.112 E.01746
G1 X106.16 Y120.849 E.01746
G1 X106.699 Y120.71 E.01746
G1 X107.256 Y120.705 E.01746
G1 X107.798 Y120.833 E.01746
G1 X108.293 Y121.086 E.01746
G1 X108.714 Y121.451 E.01746
G1 X109.034 Y121.907 E.01746
